X:1
T:Title
%%score 1 { 2 | 3 }
L:1/8
Q:1/4=118
M:4/4
K:C
V:1 treble nm="Grand Piano, Staff 1"
V:2 bass nm="Choir Pad, Fahre Fort, 67.87.896"
V:3 bass 
V:1
 C4 [CE]4 | [DG]8 | [FA]4 [GB]4 | [Gc]8 | [Ge]2 [Gd]2 [Ec]2 [Dd]2 | [Ec]2 [DB]2 [Ec]4 | %6
w: By~German,~1704 *||||||
 [EG]2 [EG]2 [CA]2 [EB]2 | [Ec]2 [Dd]2 [DB]2 [DG]2 | [Dd]2 [Gd]2 [Ge]2 [Ac]2 | [GB]2 [^FA]2 G4 | %10
w: ||||
 [FA]2 [FA]2 [DG]2 [CG]2 | [CF]2 [B,G]2 [CE]2 C2 | [CD]2 [B,D]2 C2 D2 | [CE]2 [CF]2 [CG]2 [CE]2 | %14
w: ||||
 [B,D]6 z2 | C4 [CE]4 | [DG]8 | [FA]4 [DB]4 | [Ec]8 |] %19
w: |||||
V:2
 E,4 G,4 | B,8 | D4 D4 | E8 | C2 B,2 C2 A,2 | G,2 G,2 G,4 | C2 B,2 A,2 ^G,2 | A,2 A,2 G,2 G,2 | %8
 G,2 B,2[K:treble] C2 E2 | D2 D2 B,4 | D2 C2[K:bass] B,2 G,2 | A,2 G,2 G,2 A,2 | A,2 G,2 E,2 G,2 | %13
 G,2 A,2 G,2 G,2 | G,6 z2 | E,4 A,4 | B,8 | A,4 G,4 | G,8 |] %19
V:3
 C,4 C,4 | [G,,G,]8 | D,4 G,4 | [C,C]8 | C,2 G,2 A,2 F,2 | z2 G,,2 C,4 | C,2 E,2 F,2 E,2 | %7
 A,,2 [^F,,^F,]2 G,,2 B,,2 | B,,2 [G,,G,]2 C,2 C,2 | D,2 D,2 G,4 | D,2 F,2 F,2 E,2 | %11
 D,2 D,2 C,2 A,,2 | F,,2 G,,2 A,,2 B,,2 | C,2 F,2 E,2 C,2 | G,,6 z2 | C,4 A,,4 | G,,8 | D,4 G,,4 | %18
 C,8 |] %19

